assets/img/globus.svg

<svg width="23" height="23" viewBox="0 0 23 23" fill="none" xmlns="http://www.w3.org/2000/svg">
<path d="M11.5 0C5.1489 0 0 5.1489 0 11.5C0 17.8511 5.1489 23 11.5 23C17.8511 23 23 17.8511 23 11.5C23 5.1489 17.8511 0 11.5 0ZM19.2351 5.60537C20.4466 7.19148 21.1808 9.15931 21.2255 11.2943C19.2439 10.9197 16.9523 10.7366 14.5214 11.2271C14.2312 10.5535 13.9265 9.88204 13.5987 9.21592C16.4592 8.01948 18.2815 6.53687 19.2351 5.60537ZM18.0311 4.29304C17.2036 5.09273 15.5016 6.48512 12.7646 7.6099C11.7167 5.67879 10.5207 3.80517 9.2 2.04656C9.93777 1.86654 10.7074 1.76923 11.5 1.76923C14.011 1.76923 16.303 2.7255 18.0311 4.29304ZM7.44138 2.6596C8.79308 4.40848 10.0152 6.28121 11.0816 8.21631C8.69621 8.96956 5.69869 9.47202 2.01338 9.34331C2.68879 6.36923 4.73004 3.90956 7.44138 2.6596ZM1.76923 11.5C1.76923 11.3673 1.7741 11.2351 1.7794 11.1037C2.27125 11.124 2.75602 11.1373 3.22619 11.1373C6.72529 11.1373 9.60294 10.5977 11.9326 9.83338C12.2382 10.4478 12.5239 11.067 12.7964 11.688C10.0245 12.6164 7.12956 14.5241 4.34788 18.0895C2.7485 16.3548 1.76923 14.0402 1.76923 11.5ZM5.66287 19.2802C8.25435 15.9218 10.9108 14.1512 13.4718 13.3201C14.3993 15.7125 15.061 18.1107 15.4109 20.4076C14.2131 20.9353 12.8906 21.2308 11.5 21.2308C9.31146 21.2308 7.29011 20.5041 5.66287 19.2802ZM17.0572 19.481C16.6794 17.3318 16.0483 15.1092 15.2017 12.8919C17.2907 12.5279 19.2882 12.7106 21.1021 13.072C20.6704 15.7174 19.1687 18.0063 17.0572 19.481Z" fill="url(#paint0_linear_326_298)"/>
<defs>
<linearGradient id="paint0_linear_326_298" x1="21.9853" y1="21.6471" x2="-2.97726" y2="9.80215" gradientUnits="userSpaceOnUse">
<stop stop-color="#FFE5A2"/>
<stop offset="0.505208" stop-color="#BF841A"/>
<stop offset="1" stop-color="#FFCD74"/>
</linearGradient>
</defs>
</svg>

<svg width="23" height="23" fill="none" xmlns="http://www.w3.org/2000/svg"><path d="M11.5 0C5.149 0 0 5.149 0 11.5S5.149 23 11.5 23 23 17.851 23 11.5 17.851 0 11.5 0zm7.735 5.605a9.679 9.679 0 011.99 5.69c-1.981-.375-4.273-.558-6.704-.068a43.769 43.769 0 00-.922-2.011c2.86-1.197 4.683-2.68 5.636-3.61zm-1.204-1.312c-.827.8-2.53 2.192-5.266 3.317A45.148 45.148 0 009.2 2.047a9.693 9.693 0 018.831 2.246zM7.441 2.66a43.238 43.238 0 013.64 5.556C8.697 8.97 5.7 9.472 2.014 9.343A9.765 9.765 0 017.441 2.66zM1.77 11.5c0-.133.005-.265.01-.396.492.02.977.033 1.447.033 3.5 0 6.377-.54 8.707-1.304.305.615.59 1.234.863 1.855-2.771.928-5.666 2.836-8.448 6.402A9.693 9.693 0 011.77 11.5zm3.894 7.78c2.591-3.358 5.248-5.129 7.809-5.96.927 2.393 1.589 4.79 1.939 7.088a9.677 9.677 0 01-3.911.823 9.68 9.68 0 01-5.837-1.95zm11.394.201c-.378-2.15-1.009-4.372-1.855-6.59 2.089-.363 4.086-.18 5.9.181a9.743 9.743 0 01-4.045 6.409z" fill="url(#paint0_linear_326_298)"/><defs><linearGradient id="paint0_linear_326_298" x1="21.985" y1="21.647" x2="-2.977" y2="9.802" gradientUnits="userSpaceOnUse"><stop stop-color="#FFE5A2"/><stop offset=".505" stop-color="#BF841A"/><stop offset="1" stop-color="#FFCD74"/></linearGradient></defs></svg>
